docs/assets/icons/lock-harddisk.svg

<?xml version="1.0" encoding="UTF-8" standalone="no"?>
<!-- Created with Inkscape (http://www.inkscape.org/) -->

<svg
   width="120"
   height="120"
   viewBox="0 0 120 120"
   version="1.1"
   id="svg1"
   xml:space="preserve"
   inkscape:version="1.4.3 (0d15f75042, 2025-12-25)"
   sodipodi:docname="lock-harddisk.svg"
   xmlns:inkscape="http://www.inkscape.org/namespaces/inkscape"
   xmlns:sodipodi="http://sodipodi.sourceforge.net/DTD/sodipodi-0.dtd"
   xmlns="http://www.w3.org/2000/svg"
   xmlns:svg="http://www.w3.org/2000/svg"><sodipodi:namedview
     id="namedview1"
     pagecolor="#505050"
     bordercolor="#ffffff"
     borderopacity="1"
     inkscape:showpageshadow="0"
     inkscape:pageopacity="0"
     inkscape:pagecheckerboard="1"
     inkscape:deskcolor="#505050"
     inkscape:document-units="px"
     inkscape:zoom="4.8583333"
     inkscape:cx="53.207548"
     inkscape:cy="49.193825"
     inkscape:window-width="2560"
     inkscape:window-height="1368"
     inkscape:window-x="0"
     inkscape:window-y="0"
     inkscape:window-maximized="1"
     inkscape:current-layer="layer1" /><defs
     id="defs1"><linearGradient
       id="swatch16"
       inkscape:swatch="solid"><stop
         style="stop-color:#000000;stop-opacity:1;"
         offset="0"
         id="stop16" /></linearGradient><filter
       style="color-interpolation-filters:sRGB;"
       inkscape:label="Drop Shadow"
       id="filter16"
       x="-0.067162998"
       y="-0.06830469"
       width="1.1458481"
       height="1.1266043"><feFlood
         result="flood"
         in="SourceGraphic"
         flood-opacity="1.000000"
         flood-color="rgb(0,0,0)"
         id="feFlood15" /><feGaussianBlur
         result="blur"
         in="SourceGraphic"
         stdDeviation="1.000000"
         id="feGaussianBlur15" /><feOffset
         result="offset"
         in="blur"
         dx="0.500000"
         dy="-0.500000"
         id="feOffset15" /><feComposite
         result="comp1"
         operator="in"
         in="flood"
         in2="offset"
         id="feComposite15" /><feComposite
         result="comp2"
         operator="over"
         in="SourceGraphic"
         in2="comp1"
         id="feComposite16" /></filter><filter
       style="color-interpolation-filters:sRGB;"
       inkscape:label="Drop Shadow"
       id="filter2"
       x="-0.018666666"
       y="-0.014933334"
       width="1.054"
       height="1.0432"><feFlood
         result="flood"
         in="SourceGraphic"
         flood-opacity="0.498039"
         flood-color="rgb(0,0,0)"
         id="feFlood1" /><feGaussianBlur
         result="blur"
         in="SourceGraphic"
         stdDeviation="0.700000"
         id="feGaussianBlur1" /><feOffset
         result="offset"
         in="blur"
         dx="1.500000"
         dy="1.500000"
         id="feOffset1" /><feComposite
         result="comp1"
         operator="in"
         in="flood"
         in2="offset"
         id="feComposite1" /><feComposite
         result="comp2"
         operator="over"
         in="SourceGraphic"
         in2="comp1"
         id="feComposite2" /></filter></defs><g
     inkscape:label="Layer 1"
     inkscape:groupmode="layer"
     id="layer1"
     transform="matrix(0.95616928,0,0,0.95616928,5.1287957,0.85056479)"><path
       d="m 26.25,3.7500047 h 67.5 A 11.249999,11.249999 0 0 1 105,15.000005 V 105.00001 A 11.249999,11.249999 0 0 1 93.75,116.25 H 26.25 A 11.249999,11.249999 0 0 1 15,105.00001 V 15.000005 A 11.249999,11.249999 0 0 1 26.25,3.7500047 M 60,15.000005 A 33.749999,33.749999 0 0 0 26.25,48.750004 c 0,18.618751 15.13125,33.750002 34.3125,33.750002 l -4.95,-12.543751 c -1.51875,-2.7 -0.61875,-6.13125 2.08125,-7.70625 l 4.8375,-2.8125 c 2.7,-1.518751 6.13125,-0.61875 7.70625,2.08125 l 10.8,13.6125 C 88.8,68.943755 93.75,59.437505 93.75,48.750004 A 33.749999,33.749999 0 0 0 60,15.000005 m 0,28.124999 a 5.6250001,5.6250001 0 0 1 5.625,5.625 5.6250001,5.6250001 0 0 1 -5.625,5.625 5.6250001,5.6250001 0 0 1 -5.625,-5.625 5.6250001,5.6250001 0 0 1 5.625,-5.625 M 31.875,93.750005 a 5.6250001,5.6250001 0 0 0 -5.625,5.625005 5.6250001,5.6250001 0 0 0 5.625,5.625 5.6250001,5.6250001 0 0 0 5.625,-5.625 5.6250001,5.6250001 0 0 0 -5.625,-5.625005 M 60.50625,67.143755 74.5125,102.63751 89.08125,94.200004 65.34375,64.331255 Z"
       id="path1"
       style="fill:#0091eb;stroke-width:1.04583992;stroke:none;stroke-opacity:1;stroke-dasharray:none;fill-opacity:1" /><path
       d="m 51.317459,90.8934 a 4.5167078,4.5167078 0 0 1 1.932732,6.088172 L 42.861573,117.03384 a 4.5167078,4.5167078 0 0 1 -6.088178,1.93273 L 12.710687,106.50021 c -2.2258,-1.15314 -3.0754753,-3.88241 -1.932725,-6.08817 L 21.166577,80.359781 a 4.5167078,4.5167078 0 0 1 6.088174,-1.932723 l 18.04703,9.349754 2.077722,-4.010451 a 6.7750618,6.7750618 0 0 0 -2.899091,-9.13226 6.7750618,6.7750618 0 0 0 -9.132262,2.899091 l -4.010451,-2.077724 a 11.291771,11.291771 0 0 1 15.220436,-4.831818 11.291771,11.291771 0 0 1 4.831819,15.220434 l -2.077725,4.010451 2.00523,1.038865 m -21.381107,11.81386 a 4.5167078,4.5167078 0 0 0 6.088169,-1.93273 4.5167078,4.5167078 0 0 0 -1.932725,-6.088178 4.5167078,4.5167078 0 0 0 -6.088174,1.932727 4.5167078,4.5167078 0 0 0 1.93273,6.088181 z"
       id="path1-6"
       style="fill:#4cae4f;fill-opacity:1;stroke:none;stroke-opacity:1;paint-order:fill markers stroke;stroke-width:1.04583992;stroke-dasharray:none" /></g></svg>

<?xml version="1.0" encoding="UTF-8"?>
<svg version="1.1" viewBox="0 0 120 120" xmlns="http://www.w3.org/2000/svg"><defs><filter id="filter39" x="-.039568" y="-.034383" width="1.0792" height="1.0687" color-interpolation-filters="sRGB"><feFlood flood-color="rgb(0,0,0)" flood-opacity=".49804" in="SourceGraphic" result="flood"/><feGaussianBlur in="SourceGraphic" result="blur" stdDeviation="0.500000"/><feOffset dx="0.000000" dy="0.000000" in="blur" result="offset"/><feComposite in="flood" in2="offset" operator="in" result="comp1"/><feComposite in="SourceGraphic" in2="comp1" result="comp2"/></filter></defs><g transform="matrix(.95617 0 0 .95617 5.1288 .85056)" stroke-linecap="round" stroke-linejoin="round"><path d="m26.25 3.75h67.5a11.25 11.25 0 0111.25 11.25v90a11.25 11.25 0 01-11.25 11.25h-67.5a11.25 11.25 0 01-11.25-11.25v-90a11.25 11.25 0 0111.25-11.25m33.75 11.25a33.75 33.75 0 00-33.75 33.75c0 18.619 15.131 33.75 34.312 33.75l-4.95-12.544c-1.5188-2.7-.61875-6.1312 2.0812-7.7062l4.8375-2.8125c2.7-1.5188 6.1312-.61875 7.7062 2.0812l10.8 13.612c7.7625-6.1875 12.712-15.694 12.712-26.381a33.75 33.75 0 00-33.75-33.75m0 28.125a5.625 5.625 0 015.625 5.625 5.625 5.625 0 01-5.625 5.625 5.625 5.625 0 01-5.625-5.625 5.625 5.625 0 015.625-5.625m-28.125 50.625a5.625 5.625 0 00-5.625 5.625 5.625 5.625 0 005.625 5.625 5.625 5.625 0 005.625-5.625 5.625 5.625 0 00-5.625-5.625m28.631-26.606 14.006 35.494 14.569-8.4375-23.738-29.869z" fill="#0091eb" stroke="#4cae4f" stroke-width="2.0917"/><path d="m51.212 91.521a4.5167 4.5167 0 011.9327 6.0882l-10.389 20.052a4.5167 4.5167 0 01-6.0882 1.9327l-24.063-12.466c-2.2258-1.1531-3.0755-3.8824-1.9327-6.0882l10.389-20.052a4.5167 4.5167 0 016.0882-1.9327l18.047 9.3498 2.0777-4.0105a6.7751 6.7751 0 00-2.8991-9.1323 6.7751 6.7751 0 00-9.1323 2.8991l-4.0105-2.0777a11.292 11.292 0 0115.22-4.8318 11.292 11.292 0 014.8318 15.22l-2.0777 4.0105 2.0052 1.0389m-21.381 11.814a4.5167 4.5167 0 006.0882-1.9327 4.5167 4.5167 0 00-1.9327-6.0882 4.5167 4.5167 0 00-6.0882 1.9327 4.5167 4.5167 0 001.9327 6.0882z" fill="#4cae4f" filter="url(#filter39)" stroke="#0091eb" stroke-width="1.0458" style="paint-order:normal"/></g></svg>
